X: 4599
T: Bouncing Lily
R: jig
M: 6/8
K: Amajor
|:EFA Bce|fea fec|EFA Bce|f/f/f f a2a|
EFA Bce|fea fec|a/a/a a fec|ecB A3:|
|:a/a/a a fec|ecB Ace|a/a/a a fec|eag a2 g|
a/a/a a fec|ecA BAF|EFA Bce|fec A3:|

